img/crane4.svg

<svg width="49" height="49" viewBox="0 0 49 49" fill="none" xmlns="http://www.w3.org/2000/svg">
<path d="M47.28 12.702L43.1973 4.53575C43.1971 4.53537 43.1969 4.53489 43.1966 4.53451C43.1818 4.50484 43.1644 4.47632 43.1458 4.44838C43.1398 4.43929 43.1336 4.43058 43.1273 4.42177C43.1133 4.40253 43.0983 4.38387 43.0826 4.36569C43.0757 4.35775 43.0692 4.34942 43.062 4.34167C43.0413 4.31966 43.0191 4.2987 42.9957 4.27879C42.9847 4.26941 42.9731 4.26109 42.9616 4.25228C42.9524 4.2453 42.9439 4.23773 42.9343 4.23113C42.9282 4.22682 42.9217 4.22338 42.9155 4.21936C42.9033 4.21132 42.8911 4.20357 42.8785 4.1962C42.8582 4.18424 42.8375 4.17361 42.8166 4.16356C42.8085 4.15974 42.8008 4.15524 42.7926 4.1517C42.7624 4.13859 42.7318 4.12777 42.7008 4.11849C42.6926 4.116 42.6842 4.11409 42.6759 4.11188C42.6492 4.1048 42.6224 4.09906 42.5954 4.09475C42.5882 4.09361 42.5811 4.09217 42.5738 4.09121C42.5396 4.08671 42.5054 4.08423 42.4712 4.08403C42.4697 4.08403 42.4682 4.08375 42.4667 4.08375H17.1595V2.45C17.1595 2.17638 17.0223 1.92076 16.7945 1.76974L14.3347 0.136377C14.2007 0.047373 14.0439 0 13.8831 0H10.6164C10.4555 0 10.2971 0.0481387 10.1632 0.137238L7.71317 1.77051C7.48616 1.92239 7.34979 2.17725 7.34979 2.45V4.08337H4.8996C4.44883 4.08337 4.08296 4.44924 4.08296 4.9V13.0666C4.08296 13.5174 4.44883 13.8833 4.8996 13.8833H7.34969V14.7139C7.34969 14.7141 7.34969 14.7143 7.34969 14.7145V47.3666H2.44969C1.99893 47.3666 1.63306 47.7325 1.63306 48.1833C1.63306 48.634 1.99893 49 2.44969 49H8.16633H16.3428H22.0497C22.5005 49 22.8663 48.6341 22.8663 48.1834C22.8663 47.7326 22.5005 47.3667 22.0497 47.3667H17.1595V27.7753C17.1595 27.7725 17.1599 27.7696 17.1599 27.7667C17.1599 27.7639 17.1595 27.761 17.1595 27.7581V13.8837H35.933V18.7834C35.933 19.2341 36.2988 19.6 36.7496 19.6C37.6504 19.6 38.383 20.3325 38.383 21.2334C38.383 22.1341 37.6504 22.8667 36.7496 22.8667C35.8487 22.8667 35.1162 22.1342 35.1162 21.2334C35.1162 20.7826 34.7504 20.4167 34.2996 20.4167C33.8488 20.4167 33.483 20.7826 33.483 21.2334C33.4831 23.0349 34.9482 24.5 36.7497 24.5C38.5512 24.5 40.0163 23.0349 40.0163 21.2334C40.0163 19.7137 38.9738 18.4335 37.5663 18.07V13.8837H46.5498C46.8324 13.8837 47.0953 13.7367 47.2439 13.4966C47.3935 13.2557 47.4065 12.9552 47.28 12.702ZM15.5262 13.1388L13.6731 11.8416L15.5262 10.5445V13.1388ZM14.9768 14.7471L12.2596 16.9209L9.53316 14.7397L12.2497 12.8381L14.9768 14.7471ZM8.98306 32.6087V29.4578L10.9524 31.0333L8.98306 32.6087ZM12.2596 32.079L15.0359 34.3L12.2596 36.521L9.4833 34.3L12.2596 32.079ZM9.48339 27.7666L12.2596 25.5457L15.0359 27.7666L12.2596 29.9875L9.48339 27.7666ZM8.98306 26.0755V22.9245L10.9524 24.5L8.98306 26.0755ZM9.4833 21.2334L12.2596 19.0124L15.0359 21.2334L12.2596 23.4543L9.4833 21.2334ZM8.98306 19.5421V16.3912L10.9524 17.9666L8.98306 19.5421ZM8.98306 13.1319V10.5515L10.8262 11.8417L8.98306 13.1319ZM8.98306 35.9913L10.9524 37.5667L8.98306 39.1422V35.9913ZM12.2596 38.6125L15.0815 40.87L12.2596 43.4099L9.43765 40.87L12.2596 38.6125ZM13.5669 37.5667L15.5262 35.9993V39.1342L13.5669 37.5667ZM13.5669 31.0333L15.5262 29.4658V32.6007L13.5669 31.0333ZM13.5669 24.5L15.5262 22.9326V26.0674L13.5669 24.5ZM13.5669 17.9666L15.5262 16.3992V19.5341L13.5669 17.9666ZM15.5262 7.42206L13.6731 6.125L15.5262 4.82784V7.42206ZM14.9096 8.98327L12.2497 10.8453L9.58981 8.98337L12.2497 7.12137L14.9096 8.98327ZM8.98306 7.41517V4.83473L10.8262 6.125L8.98306 7.41517ZM11.0394 44.5082L8.98306 46.359V42.6575L11.0394 44.5082ZM12.2596 45.6065L14.2154 47.3667H10.3038L12.2596 45.6065ZM13.4799 44.5082L15.5262 42.6665V46.3499L13.4799 44.5082ZM17.1596 6.20769L19.3805 8.98384L17.1596 11.76V6.20769ZM31.9254 5.71711H35.0605L33.4929 7.67644L31.9254 5.71711ZM32.4471 8.98346L30.2259 11.7596L28.0055 8.98404L30.2267 6.20788L32.4471 8.98346ZM26.9596 7.67663L25.392 5.71711H28.5272L26.9596 7.67663ZM25.9137 8.98404L23.6933 11.7596L21.4721 8.98346L23.6925 6.20788L25.9137 8.98404ZM20.4265 7.67644L18.8589 5.71711H21.994L20.4265 7.67644ZM20.4263 10.291L21.9939 12.2505H18.8588L20.4263 10.291ZM26.9596 10.2912L28.5272 12.2504H25.3921L26.9596 10.2912ZM33.493 10.291L35.0605 12.2505H31.9254L33.493 10.291ZM36.7107 11.6988L34.5387 8.98375L36.711 6.26827L38.6116 8.98327L36.7107 11.6988ZM39.608 10.4069L40.8984 12.2504H38.3174L39.608 10.4069ZM38.318 5.71711H40.8979L39.608 7.55997L38.318 5.71711ZM10.8638 1.63337H13.6364L15.4869 2.86248L12.2497 5.12854L9.01598 2.86497L10.8638 1.63337ZM7.3496 12.25H5.71623V5.71663H7.3496V12.25ZM42.8913 12.2504L40.6044 8.98337L42.3489 6.49126L45.2285 12.2504H42.8913Z" fill="#E3CEA3"/>
<path d="M45.7327 26.1333H27.766C27.3153 26.1333 26.9494 26.4992 26.9494 26.9499V48.1833C26.9494 48.6341 27.3153 48.9999 27.766 48.9999H45.7327C46.1834 48.9999 46.5493 48.6341 46.5493 48.1833V26.9499C46.5494 26.4992 46.1835 26.1333 45.7327 26.1333ZM38.3829 47.3666H35.1162V44.0999H38.3829V47.3666ZM44.916 47.3666H40.0162V43.2832C40.0162 42.8324 39.6504 42.4666 39.1996 42.4666H34.2996C33.8488 42.4666 33.483 42.8324 33.483 43.2832V47.3666H28.5828V27.7666H44.9161V47.3666H44.916Z" fill="#E3CEA3"/>
<path d="M40.0164 34.3H41.6497C42.5504 34.3 43.283 33.5675 43.283 32.6666V31.0333C43.283 30.1325 42.5505 29.3999 41.6497 29.3999H40.0163C39.1155 29.3999 38.3829 30.1324 38.3829 31.0333V32.6666C38.383 33.5675 39.1155 34.3 40.0164 34.3ZM40.0164 31.0334H41.6497L41.6505 32.6667H40.0164V31.0334Z" fill="#E3CEA3"/>
<path d="M31.8497 34.3H33.4831C34.3839 34.3 35.1165 33.5675 35.1165 32.6666V31.0333C35.1165 30.1325 34.3839 29.3999 33.4831 29.3999H31.8497C30.949 29.3999 30.2164 30.1324 30.2164 31.0333V32.6666C30.2165 33.5675 30.949 34.3 31.8497 34.3ZM31.8497 31.0334H33.4831L33.484 32.6667H31.8497V31.0334Z" fill="#E3CEA3"/>
<path d="M40.0164 40.8333H41.6497C42.5504 40.8333 43.283 40.1008 43.283 39.2V37.5666C43.283 36.6658 42.5505 35.9332 41.6497 35.9332H40.0163C39.1155 35.9332 38.3829 36.6657 38.3829 37.5666V39.2C38.383 40.1007 39.1155 40.8333 40.0164 40.8333ZM40.0164 37.5666H41.6497L41.6505 39.2H40.0164V37.5666Z" fill="#E3CEA3"/>
<path d="M31.8497 40.8333H33.4831C34.3839 40.8333 35.1165 40.1008 35.1165 39.2V37.5666C35.1165 36.6658 34.3839 35.9332 33.4831 35.9332H31.8497C30.949 35.9332 30.2164 36.6657 30.2164 37.5666V39.2C30.2165 40.1007 30.949 40.8333 31.8497 40.8333ZM31.8497 37.5666H33.4831L33.484 39.2H31.8497V37.5666Z" fill="#E3CEA3"/>
</svg>

<svg width="49" height="49" fill="none" xmlns="http://www.w3.org/2000/svg"><path d="M47.28 12.702l-4.083-8.166v-.001a.804.804 0 00-.114-.17l-.021-.023a.824.824 0 00-.066-.063l-.034-.027-.028-.02-.018-.013a.814.814 0 00-.1-.055c-.008-.004-.015-.009-.023-.012a.82.82 0 00-.092-.034l-.025-.006a.815.815 0 00-.08-.017l-.022-.004a.823.823 0 00-.103-.007H17.16V2.45a.816.816 0 00-.366-.68L14.334.136a.815.815 0 00-.45-.136h-3.268a.82.82 0 00-.453.137l-2.45 1.634a.818.818 0 00-.363.679v1.633H4.9a.817.817 0 00-.817.817v8.167c0 .45.366.816.817.816h2.45v33.484h-4.9a.817.817 0 000 1.633h19.6a.817.817 0 000-1.633h-4.89V13.884h18.773v4.9c0 .45.366.816.817.816.9 0 1.633.732 1.633 1.633s-.733 1.634-1.633 1.634a1.636 1.636 0 01-1.634-1.634.817.817 0 00-1.633 0A3.27 3.27 0 0036.75 24.5a3.27 3.27 0 003.266-3.267 3.27 3.27 0 00-2.45-3.163v-4.186h8.984a.817.817 0 00.73-1.182zm-31.754.437l-1.853-1.297 1.853-1.298v2.595zm-.55 1.608l-2.716 2.174-2.727-2.181 2.717-1.902 2.727 1.91zM8.984 32.61v-3.151l1.97 1.575-1.97 1.576zm3.277-.53l2.776 2.221-2.776 2.221L9.483 34.3l2.777-2.221zm-2.777-4.312l2.777-2.221 2.776 2.22-2.776 2.222-2.777-2.221zm-.5-1.691v-3.152l1.97 1.576-1.97 1.576zm.5-4.843l2.777-2.22 2.776 2.22-2.776 2.221-2.777-2.22zm-.5-1.69V16.39l1.97 1.576-1.97 1.575zm0-6.411v-2.58l1.843 1.29-1.843 1.29zm0 22.86l1.97 1.575-1.97 1.575v-3.15zm3.277 2.62l2.822 2.258-2.822 2.54-2.822-2.54 2.822-2.258zm1.307-1.045L15.528 36v3.135l-1.96-1.567zm0-6.534l1.96-1.567V32.6l-1.96-1.568zm0-6.533l1.96-1.567v3.134l-1.96-1.567zm0-6.533l1.96-1.568v3.135l-1.96-1.567zm1.96-10.545l-1.854-1.297 1.853-1.297v2.594zm-.617 1.561l-2.66 1.862-2.66-1.862 2.66-1.862 2.66 1.862zM8.983 7.415v-2.58l1.843 1.29-1.843 1.29zm2.056 37.093L8.983 46.36v-3.702l2.056 1.851zm1.22 1.098l1.956 1.76h-3.911l1.956-1.76zm1.22-1.098l2.047-1.842v3.684l-2.046-1.842zm3.68-38.3l2.222 2.776-2.221 2.776V6.208zm14.766-.49h3.135l-1.567 1.958-1.568-1.959zm.522 3.265l-2.221 2.777-2.22-2.776 2.22-2.776 2.221 2.775zM26.96 7.677l-1.568-1.96h3.135l-1.567 1.96zm-1.046 1.307l-2.22 2.776-2.222-2.777 2.22-2.775 2.222 2.776zm-5.488-1.308L18.86 5.717h3.135l-1.567 1.96zm0 2.615l1.568 1.96h-3.135l1.567-1.96zm6.534 0l1.567 1.96h-3.135l1.568-1.96zm6.533 0l1.567 1.96h-3.135l1.568-1.96zm3.218 1.408l-2.172-2.715 2.172-2.716 1.9 2.715-1.9 2.716zm2.897-1.292l1.29 1.843h-2.58l1.29-1.843zm-1.29-4.69h2.58l-1.29 1.843-1.29-1.843zM10.864 1.633h2.772l1.85 1.23-3.236 2.266-3.234-2.264 1.848-1.232zM7.35 12.25H5.716V5.717H7.35v6.533zm35.541 0l-2.287-3.267 1.745-2.492 2.88 5.76H42.89z" fill="#E3CEA3"/><path d="M45.733 26.133H27.766a.817.817 0 00-.817.817v21.233c0 .451.366.817.817.817h17.967c.45 0 .816-.366.816-.817V26.95a.817.817 0 00-.816-.817zm-7.35 21.234h-3.267V44.1h3.267v3.267zm6.533 0h-4.9v-4.084a.817.817 0 00-.816-.816h-4.9a.817.817 0 00-.817.816v4.084h-4.9v-19.6h16.333v19.6z" fill="#E3CEA3"/><path d="M40.016 34.3h1.634c.9 0 1.633-.732 1.633-1.633v-1.634c0-.9-.733-1.633-1.633-1.633h-1.634c-.9 0-1.633.732-1.633 1.633v1.634c0 .9.732 1.633 1.633 1.633zm0-3.267h1.634v1.634h-1.634v-1.634zM31.85 34.3h1.633c.9 0 1.634-.732 1.634-1.633v-1.634c0-.9-.733-1.633-1.634-1.633H31.85c-.901 0-1.634.732-1.634 1.633v1.634c0 .9.733 1.633 1.634 1.633zm0-3.267h1.633l.001 1.634H31.85v-1.634zm8.166 9.8h1.634c.9 0 1.633-.732 1.633-1.633v-1.633c0-.901-.733-1.634-1.633-1.634h-1.634c-.9 0-1.633.733-1.633 1.634V39.2c0 .9.732 1.633 1.633 1.633zm0-3.266h1.634V39.2h-1.634v-1.633zm-8.166 3.266h1.633c.9 0 1.634-.732 1.634-1.633v-1.633c0-.901-.733-1.634-1.634-1.634H31.85c-.901 0-1.634.733-1.634 1.634V39.2c0 .9.733 1.633 1.634 1.633zm0-3.266h1.633l.001 1.633H31.85v-1.633z" fill="#E3CEA3"/></svg>
